X: 12924
T: Fiddler Leahy's
R: reel
M: 4/4
K: Dmajor
AF|EBBA B2BF|B/c/B GB dBAG|F/E/D AD BDAD|F/E/D FA dBAF|
EBBA B2BA|B/c/d AB defg|a/g/f g/f/e dBAF|DEFD E2:|
B/c/d|eBB/A/B efgf|eBB/A/B gedB|A2Ac dAFB|A/B/A FA defd|
eBB/A/B efgf|eBB/A/B defg|a/g/f g/f/e dBAF|DEFD E2:|

